X: 655
T: Adrian Stuart
R: hornpipe
M: 4/4
K: Gminor
FE|DFBd cdeg|f2 B2 BdcB|Acfa gc=eg|agf=e _ecAE|
DFBd cdeg|f2 B2 BFDF|EDEG FAce|d2 B2 B2:|
|:F2|BFBd ceAc|dB B2 gfdB|Acfa gc=eg|agf=e _ecAE|
DFBd Ace=e|gfdB FEDF|EDEG FAce|d2 B2 B2:|

